packages/components/src/telekom/icons/weather/moon-thunder-snow/selected.svg

<?xml version="1.0" encoding="UTF-8"?>
<svg width="24px" height="24px" viewBox="0 0 24 24" version="1.1" xmlns="http://www.w3.org/2000/svg" xmlns:xlink="http://www.w3.org/1999/xlink">
    <title>icon/weather/moon-thunder-snow/selected</title>
    <g id="icon/weather/moon-thunder-snow/selected" stroke="none" stroke-width="1" fill="none" fill-rule="evenodd">
        <path d="M8.4101,15.20005 L5.8481,18.80005 L8.3351,18.80005 L3.2886,22.87805 C3.16125,22.9811 2.9934,22.84925 3.0354615,22.7117705 L3.0576,22.66605 L4.8631,20.00005 L2.9511,20.00005 L5.6126,15.20005 L8.4101,15.20005 Z M11.8811,15.02155 L12.9201,15.62155 L12.2396,16.80005 L13.6006,16.80005 L13.6006,18.00005 L12.2396,18.00005 L12.9201,19.17855 L11.8811,19.77855 L11.2006,18.60005 L10.5201,19.77855 L9.4811,19.17855 L10.1611,18.00005 L8.8006,18.00005 L8.8006,16.80005 L10.1611,16.80005 L9.4811,15.62155 L10.5201,15.02155 L11.2006,16.20005 L11.8811,15.02155 Z M10.1066,5.98105 C12.4606,5.98105 14.5341,7.44805 15.3396,9.65505 C16.7206,10.38255 17.6006,11.82955 17.6006,13.40805 C17.6006,15.17253 16.5214064,16.6849524 14.993836,17.3206936 L14.8006,17.39555 L14.8006,15.90055 C14.8006,15.5832167 14.6500815,15.2872167 14.3996123,15.0996392 L14.3011,15.03455 L11.7011,13.53105 C11.4302875,13.3739875 11.1039672,13.3547375 10.8189428,13.4722951 L10.6996,13.53105 L9.9201,13.98255 L4.9056,14.00005 L3.0036,17.43105 C1.4916,16.91105 0.4006,15.47255 0.4006,13.77705 C0.4006,12.37755 1.1556,11.09355 2.3526,10.41155 C2.4546,8.58955 3.9601,7.13855 5.7956,7.13855 C6.0661,7.13855 6.3351,7.17155 6.6011,7.23655 C7.5941,6.42455 8.8276,5.98105 10.1066,5.98105 Z M18.1771,0.50505 C19.0666,0.27155 19.9621,0.27555 20.7981,0.47505 C18.8731,1.40055 17.8096,3.58605 18.3726,5.72905 C19.0046,8.13505 21.4486,9.58005 23.8551,8.99005 C23.1501,9.92355 22.1411,10.63855 20.9216,10.95905 C20.0096,11.19855 19.0911,11.18905 18.2371,10.97405 C17.8056,10.09505 17.1466,9.33355 16.2986,8.79005 C15.8136,7.70255 15.0731,6.79205 14.1616,6.11405 C13.9791,3.57055 15.6206,1.17655 18.1771,0.50505 Z" id="Shape" fill="#262626"></path>
    </g>
</svg>

<svg width="24" height="24" xmlns="http://www.w3.org/2000/svg"><path d="M8.41 15.2l-2.562 3.6h2.487L3.29 22.878c-.128.103-.296-.029-.254-.166l.023-.046L4.863 20H2.951l2.662-4.8H8.41zm3.471-.178l1.04.6-.681 1.178h1.36V18h-1.36l.68 1.179-1.039.6-.68-1.179-.68 1.179-1.04-.6.68-1.179h-1.36v-1.2h1.36l-.68-1.178 1.04-.6.68 1.178.68-1.178zM10.107 5.98a5.56 5.56 0 015.233 3.674 4.25 4.25 0 012.26 3.753 4.239 4.239 0 01-2.606 3.913l-.193.075V15.9c0-.318-.15-.614-.401-.801l-.099-.065-2.6-1.504a1 1 0 00-.882-.059l-.12.06-.779.45L4.906 14l-1.902 3.431A3.864 3.864 0 01.4 13.777c0-1.4.755-2.683 1.952-3.365.102-1.822 1.607-3.273 3.443-3.273.27 0 .54.033.805.098a5.53 5.53 0 013.506-1.256zm8.07-5.476a5.377 5.377 0 012.621-.03 4.548 4.548 0 003.057 8.515 5.377 5.377 0 01-2.933 1.969c-.912.24-1.83.23-2.685.015A5.421 5.421 0 0016.3 8.79a6.749 6.749 0 00-2.137-2.676A5.404 5.404 0 0118.177.505z" fill="#000" fill-rule="evenodd"/></svg>
